actions/symbolic/window-restore-symbolic.svg

<svg viewBox="0 0 16 16" xmlns="http://www.w3.org/2000/svg"><path d="m8 2a6 6 0 0 0 -6 6 6 6 0 0 0 6 6 6 6 0 0 0 6-6 6 6 0 0 0 -6-6zm .5670362 1.7011077v.00154c.096-.00769.19231.021308.2615938.090723l3.38256 3.3886077c.06783.067923.09655.1595077.08921.2540308v.00615c-.010335.2002331-.180806.3694946-.381045.3795408l-3.5625004.1738923-.015123.00462c-.2002378.0109954-.3530254-.1414969-.3417347-.3417354l.1859877-3.5761077c.0108-.1997538.1812846-.370523.3810485-.3810538zm-.90877 4.2988923c.2002384-.011.3530253.1415.3417338.3417308l-.1859877 3.5761152c-.0108.199746-.1812838.370516-.3810485.381046v-.0015c-.096001.0078-.1923084-.02131-.2615923-.09072l-3.3825607-3.3886105c-.0678385-.067923-.0965623-.1595077-.0892139-.2540307l-.003-.00615c.0103308-.200227.1838385-.3694962.3840754-.3795423l3.5594762-.1738923.018146-.00462z" fill="#bebebe"/></svg>

<?xml version="1.0" encoding="UTF-8" standalone="no"?>
<svg
   xmlns:dc="http://purl.org/dc/elements/1.1/"
   xmlns:cc="http://creativecommons.org/ns#"
   xmlns:rdf="http://www.w3.org/1999/02/22-rdf-syntax-ns#"
   xmlns:svg="http://www.w3.org/2000/svg"
   xmlns="http://www.w3.org/2000/svg"
   xmlns:sodipodi="http://sodipodi.sourceforge.net/DTD/sodipodi-0.dtd"
   xmlns:inkscape="http://www.inkscape.org/namespaces/inkscape"
   viewBox="0 0 16 16"
   id="svg3603"
   version="1.1"
   inkscape:version="0.91 r13725"
   sodipodi:docname="window-restore-symbolic.svg">
  <metadata
     id="metadata3611">
    <rdf:RDF>
      <cc:Work
         rdf:about="">
        <dc:format>image/svg+xml</dc:format>
        <dc:type
           rdf:resource="http://purl.org/dc/dcmitype/StillImage" />
      </cc:Work>
    </rdf:RDF>
  </metadata>
  <sodipodi:namedview
     pagecolor="#ffffff"
     bordercolor="#666666"
     borderopacity="1"
     objecttolerance="10"
     gridtolerance="10"
     guidetolerance="10"
     inkscape:pageopacity="0"
     inkscape:pageshadow="2"
     inkscape:window-width="640"
     inkscape:window-height="480"
     id="namedview3609"
     showgrid="false"
     inkscape:zoom="39.8125"
     inkscape:cx="3.5290424"
     inkscape:cy="8"
     inkscape:current-layer="svg3603" />
  <defs
     id="defs3051">
    <style
       type="text/css"
       id="current-color-scheme">
      .ColorScheme-Text {
        color:#bebebe;
      }
      </style>
  </defs>
  <path
     style="color:#bebebe;fill:currentColor;fill-opacity:1;stroke:none"
     class="ColorScheme-Text"
     d="M 8,2 A 6,6 0 0 0 2,8 6,6 0 0 0 8,14 6,6 0 0 0 14,8 6,6 0 0 0 8,2 Z m 0.5670362,1.7011077 0,0.00154 c 0.096,-0.00769 0.19231,0.021308 0.2615938,0.090723 l 3.38256,3.3886077 c 0.06783,0.067923 0.09655,0.1595077 0.08921,0.2540308 l 0,0.00615 C 12.290065,7.6423923 12.119594,7.8116538 11.919355,7.8217 l -3.5625004,0.1738923 -0.015123,0.00462 C 8.1414938,8.0112077 7.9887062,7.8587154 7.9999969,7.6584769 L 8.1859846,4.0823692 c 0.0108,-0.1997538 0.1812846,-0.370523 0.3810485,-0.3810538 z M 7.6582662,8 C 7.8585046,7.989 8.0112915,8.1415 8,8.3417308 L 7.8140123,11.917846 c -0.0108,0.199746 -0.1812838,0.370516 -0.3810485,0.381046 l 0,-0.0015 c -0.096001,0.0078 -0.1923084,-0.02131 -0.2615923,-0.09072 L 3.7888108,8.8180615 C 3.7209723,8.7501385 3.6922485,8.6585538 3.6995969,8.5640308 l -0.003,-0.00615 C 3.7069277,8.3576538 3.8804354,8.1883846 4.0806723,8.1783385 l 3.5594762,-0.1738923 0.018146,-0.00462 z"
     id="path3607"
     inkscape:connector-curvature="0" />
</svg>
